X:66
T:Northern Frisk. JJo8.066
B:J.Johnson Choice Collection Vol 8 1758
Z:vmp.Simon Wilson 2013 www.village-music-project.org.uk
M:C
L:1/8
Q:1/2=80
K:D
|:f/e/|fddA B/c/d dA|BGdF E/E/E Ee|fddA B/c/d dB|AFdF D/D/D D:|
|:D/E/|FDdD FDBD|FDdF E/E/E EG|FDdD FDBD|BdAF D/D/D D:|
|:d/e/|fdaf ecAc|dAdF E/E/E Ee|fdaf ecAA|BdAF D/D/D D:|

